X:174
T:Reel 174
M:4/4
K:Amaj
L:1/8
ED|C>A, (3A,A,A, E,>A, (3A,G,A, |B,A,G,B, E>DB,D||C>A, (3A,A,A, E,>A, (3A,G,A, |CB,CB, A,2:||2C<A, (3A,A,A, C>A, (3B,G,E, |B,D=GE DB,=G2| (3CB,A, EA, AA,EA, (3A,A,A, | (3CB,A,  (3CDE F>G (3DFB, |B,>B, (3B,B,B, DB,FB,|D>B, (3B,B,B, DB,G,B,| (3CB,A, EA, FA,EA,|C>A, (3A,A,A, AFGA|BAGE FDB,A,|C>B, (3B,CB, =GED2|
